flaticon/productivity/cloud-computing-1.svg

<svg xmlns="http://www.w3.org/2000/svg" width="32" height="32" viewBox="0 0 24 24">
    <path d="M19.167969 3.945312C18.398438 1.746094 16.238281.230469 13.816406.230469 11.429688.230469 9.316406 1.6875 8.507812 3.824219 7.53125 3.59375 6.507812 3.574219 5.507812 3.765625 2.675781 4.3125.527344 6.542969.0625 9.296875-.203125 10.859375.410156 12.347656 1.1875 13.113281 1.996094 13.910156 3.121094 14.363281 4.277344 14.363281L19.710938 14.363281C22.0625 14.363281 23.984375 12.5625 24 10.304688 24 7.386719 22.027344 4.8125 19.167969 3.945312zM19.710938 13.363281L4.277344 13.363281C3.390625 13.363281 2.53125 13.015625 1.910156 12.40625 1.328125 11.832031.96875 10.859375 1.074219 9.445312 1.242188 7.117188 3.332031 5.207031 5.707031 4.75 6.097656 4.675781 6.492188 4.636719 6.878906 4.636719 7.492188 4.636719 8.097656 4.746094 8.691406 4.914062 9.1875 5.054688 9.304688 4.699219 9.339844 4.566406 9.875 2.605469 11.714844 1.234375 13.816406 1.234375 15.878906 1.234375 17.710938 2.574219 18.273438 4.492188 18.320312 4.660156 18.457031 4.792969 18.632812 4.835938 21.191406 5.5 22.976562 7.75 22.976562 10.339844 22.96875 12.007812 21.5 13.363281 19.710938 13.363281zM11.492188 15.835938L11.492188 19.273438 10.4375 18.382812 9.792969 19.148438 11.671875 20.730469C11.898438 20.921875 12.136719 20.882812 12.316406 20.730469L14.191406 19.148438 13.546875 18.382812 12.492188 19.273438 12.492188 15.835938zM11.492188 15.835938"/>
    <path d="M 17.292969 22.765625 L 6.691406 22.765625 L 6.691406 20.609375 L 5.691406 20.609375 L 5.691406 23.769531 L 18.296875 23.769531 L 18.296875 20.609375 L 17.292969 20.609375 Z M 17.292969 22.765625"/>
</svg>

<svg xmlns="http://www.w3.org/2000/svg" width="32" height="32" viewBox="0 0 24 24">
    <path d="M19.168 3.945C18.398 1.746 16.238.23 13.816.23c-2.386 0-4.5 1.458-5.308 3.594-.977-.23-2-.25-3-.058-2.832.546-4.98 2.777-5.446 5.53-.265 1.563.348 3.052 1.125 3.817a4.424 4.424 0 0 0 3.09 1.25h15.434c2.352 0 4.273-1.8 4.289-4.058 0-2.918-1.973-5.492-4.832-6.36zm.543 9.418H4.277a3.395 3.395 0 0 1-2.367-.957c-.582-.574-.941-1.547-.836-2.96.168-2.329 2.258-4.239 4.633-4.696a6.3 6.3 0 0 1 1.172-.113c.613 0 1.219.11 1.812.277.496.14.614-.215.649-.348.535-1.96 2.375-3.332 4.476-3.332 2.063 0 3.895 1.34 4.457 3.258.047.168.184.301.36.344 2.558.664 4.344 2.914 4.344 5.504-.008 1.668-1.477 3.023-3.266 3.023zm0 0M11.492 15.836v3.437l-1.055-.89-.644.765 1.879 1.582c.226.192.465.153.644 0l1.875-1.582-.644-.765-1.055.89v-3.437zm0 0"/>
    <path d="M17.293 22.766H6.691v-2.157h-1v3.16h12.606v-3.16h-1.004zm0 0"/>
</svg>
